agent_tooling/LUTs/CINELIKE D to REC 709_26.P1003055.cube
TITLE "Generated by Resolve"
LUT_3D_SIZE 9
0 0 0
0.0581674 0 0
0.180667 0 0
0.352697 0 0
0.568795 0 0
0.787671 0 0
0.976623 0 0
1 0 0
1 0 0
0 0.0420386 0
0.0331579 0.0351873 0
0.155383 0.0260166 0
0.327779 0.00373846 0
0.545068 0 0
0.766201 0 0
0.95935 0 0
1 0 0
1 0 0
0 0.144366 0
0.00263981 0.138918 0
0.127413 0.132586 0
0.303639 0.114855 0
0.527016 0.0876326 0
0.755886 0.0623789 0
0.958373 0.0478981 0
1 0.0493782 0
1 0.0584878 0
0 0.276326 0
0 0.277668 0
0.074464 0.279622 0
0.259327 0.271305 0
0.492164 0.253697 0
0.729976 0.237385 0
0.940215 0.230137 0
1 0.236408 0
1 0.247654 0
0 0.451926 0
0 0.462715 0
0.01355 0.473182 0
0.204334 0.471519 0
0.440894 0.457755 0
0.679835 0.442557 0
0.89041 0.435111 0
1 0.441382 0
1 0.453208 0
0 0.654459 0
0 0.668055 0
0 0.678904 0
0.1523 0.677333 0
0.389013 0.663828 0
0.628794 0.649454 0
0.839994 0.6421 0
1 0.646799 0
1 0.655451 0
0 0.84828 0
0 0.862287 0
0 0.874052 0
0.130358 0.87219 0
0.364874 0.856611 0
0.600885 0.838422 0
0.80705 0.825483 0
0.962142 0.823346 0
1 0.824582 0
0 1 0
0 1 0
0 1 0
0.138125 1 0
0.365499 1 0
0.594003 0.987243 0
0.79321 0.966766 0
0.941604 0.957473 0
1 0.952316 0
0 1 0
0 1 0
0 1 0
0.136217 1 0
0.356619 1 0
0.579095 1 0
0.773693 1 0
0.918624 1 0
1 1 0
0 0 0.0655985
0.0550393 0 0.0589761
0.177386 0 0.0497292
0.349096 0 0.0261692
0.565469 0 0
0.78436 0 0
0.973526 0 0
1 0 0
1 0 0
0 0.0389563 0.0420539
0.0299535 0.0320897 0.0352178
0.152193 0.0229801 0.0261387
0.324712 0.000915541 0.00410468
0.542351 0 0
0.764019 0 0
0.957961 0 0
1 0 0
1 0 0
0 0.141634 0.0118257
0.000244144 0.136599 0.00680552
0.125582 0.130861 0.00109865
0.302541 0.113985 0
0.526833 0.0876936 0
0.756695 0.0634165 0
0.960266 0.049958 0
1 0.0523537 0
1 0.0621042 0
0 0.275746 0
0 0.27805 0
0.0757763 0.28101 0
0.261585 0.273762 0
0.495232 0.256962 0
0.733577 0.241184 0
0.944137 0.23418 0
1 0.240421 0
1 0.251362 0
0 0.454673 0
0 0.466178 0
0.01738 0.477089 0
0.208225 0.475593 0
0.444648 0.461707 0
0.683421 0.446326 0
0.894331 0.439155 0
1 0.445518 0
1 0.457267 0
0 0.658488 0
0 0.671855 0
0 0.68278 0
0.156237 0.681453 0
0.392966 0.667994 0
0.632624 0.653498 0
0.843595 0.645808 0
1 0.650034 0
1 0.658045 0
0 0.852399 0
0 0.866392 0
0 0.877974 0
0.133715 0.875776 0
0.367681 0.859648 0
0.602975 0.840757 0
0.808408 0.826978 0
0.962783 0.824063 0
1 0.824537 0
0 1 0
0 1 0
0 1 0
0.139132 1 0
0.365713 1 0
0.5935 0.986969 0
0.79205 0.965789 0
0.93991 0.955901 0
1 0.950286 0
0 1 0
0 1 0
0 1 0
0.134768 1 0
0.354635 1 0
0.576699 1 0
0.771084 1 0
0.915892 1 0
1 1 0
0 0 0.199191
0.0508278 0 0.192523
0.172976 0 0.183139
0.344762 0 0.159777
0.56109 0 0.125353
0.780056 0 0.0902876
0.969467 0 0.0636912
1 0 0.0509499
1 0 0.0446174
0 0.0348363 0.175647
0.0257267 0.0279545 0.168811
0.148028 0.0189517 0.159869
0.320699 0 0.138125
0.53875 0 0.105516
0.761013 0 0.0737163
0.955825 0 0.0519875
1 0 0.0458534
1 0 0.0476539
0 0.137972 0.145983
0 0.13341 0.141466
0.122957 0.128359 0.136446
0.300694 0.112383 0.120516
0.525933 0.0870222 0.095201
0.756786 0.0637522 0.0719768
0.961471 0.0513161 0.059556
1 0.0545205 0.0628061
1 0.0648203 0.0731365
0 0.274449 0.0842756
0 0.277714 0.087541
0.0763867 0.281697 0.0915389
0.263111 0.275456 0.0852979
0.497444 0.259373 0.0692302
0.736248 0.244053 0.0539101
0.947021 0.237186 0.0470436
1 0.24329 0.0531624
1 0.254032 0.0639048
0 0.456641 0.0136721
0 0.468772 0.025803
0.0202335 0.480018 0.0370489
0.211063 0.478599 0.0356298
0.447242 0.464485 0.0215152
0.686046 0.449149 0.0061799
0.897246 0.442176 0
1 0.448569 0.00561532
1 0.460212 0.0172427
0 0.661418 0
0 0.674464 0
0 0.685679 0
0.159136 0.68452 0
0.395834 0.671061 0
0.635309 0.656367 0
0.84596 0.64831 0
1 0.651972 0
1 0.659266 0
0 0.855467 0
0 0.869368 0
0 0.88072 0
0.135851 0.878111 0
0.369192 0.861387 0
0.603708 0.841718 0
0.808408 0.827131 0
0.962066 0.823423 0
1 0.823178 0
0 1 0
0 1 0
0 1 0
0.138766 1 0
0.364584 1 0
0.591638 0.985382 0
0.789578 0.963485 0
0.936965 0.953063 0
1 0.947051 0
0 1 0
0 1 0
0 1 0
0.132021 1 0
0.351415 1 0
0.573114 1 0
0.7673 1 0
0.912032 1 0
1 1 0
0 0 0.397742
0.0411536 0 0.391028
0.1626 0 0.381033
0.334981 0 0.358434
0.551293 0 0.324056
0.770336 0 0.289143
0.960067 0 0.262821
1 0 0.250523
1 0 0.244831
0 0.0252537 0.374273
0.0160678 0.0183871 0.367514
0.138491 0.00955215 0.358785
0.311391 0 0.337423
0.529885 0 0.305348
0.752789 0 0.27425
0.948562 0 0.253422
1 0 0.24828
1 0 0.251118
0 0.129015 0.345449
0 0.125002 0.341527
0.11516 0.120699 0.337301
0.293736 0.105638 0.322347
0.519905 0.0812543 0.298054
0.751781 0.0590066 0.275898
0.957534 0.0475319 0.264515
1 0.0514382 0.268528
1 0.0621805 0.279377
0 0.268025 0.286488
0 0.272267 0.290791
0.0719005 0.277302 0.295888
0.259449 0.271977 0.290623
0.494392 0.256519 0.275227
0.733532 0.241535 0.260304
0.944442 0.234714 0.253544
1 0.240574 0.259464
1 0.251347 0.270298
0 0.453407 0.219272
0 0.466041 0.231968
0.0176852 0.477531 0.243503
0.208362 0.476081 0.242115
0.444221 0.461662 0.227756
0.683299 0.446601 0.212741
0.894713 0.43975 0.205951
1 0.446128 0.21239
1 0.457572 0.22388
0 0.658778 0.169345
0 0.671687 0.182315
0 0.683192 0.193866
0.156573 0.682139 0.192874
0.393179 0.668589 0.1794
0.632395 0.653651 0.164508
0.842695 0.645151 0.156069
1 0.648219 0.159182
1 0.654734 0.165759
0 0.853056 0.149187
0 0.866819 0.163027
0 0.877852 0.174151
0.132296 0.874784 0.17116
0.364965 0.857389 0.153857
0.598688 0.836912 0.133471
0.802655 0.821515 0.118166
0.955596 0.81706 0.113771
1 0.816068 0.112886
0 1 0.169512
0 1 0.178866
0 1 0.183978
0.132662 1 0.174075
0.357702 1 0.149294
0.584054 0.978042 0.121508
0.781415 0.955489 0.0990768
0.928359 0.944564 0.0882429
1 0.938186 0.0819715
0 1 0.184451
0 1 0.186267
0 1 0.184161
0.123613 1 0.167575
0.342535 1 0.136797
0.563912 1 0.104051
0.757946 1 0.07776
0.902632 1 0.0642405
1 1 0.0564431
0 0 0.644038
0.0274357 0 0.637217
0.148867 0 0.627253
0.321218 0 0.604746
0.53753 0 0.570382
0.756725 0 0.535607
0.946822 0 0.50959
1 0 0.497765
1 0 0.492714
0 0.0116884 0.620539
0.00247196 0.00488289 0.613855
0.125078 0 0.605341
0.298238 0 0.584375
0.517266 0 0.552834
0.740917 0 0.522484
0.937652 0 0.502556
1 0 0.49836
1 0 0.502235
0 0.116258 0.592554
0 0.11284 0.589227
0.103731 0.109377 0.58587
0.283131 0.0952773 0.571862
0.510277 0.07187 0.548562
0.743206 0.05066 0.527443
0.94992 0.0400702 0.516976
1 0.0446174 0.521614
1 0.0557107 0.532799
0 0.257969 0.53637
0 0.263218 0.541695
0.0638285 0.269306 0.547829
0.252079 0.264805 0.543404
0.487541 0.249882 0.528542
0.72694 0.235142 0.513878
0.937865 0.22826 0.507073
1 0.233799 0.512673
1 0.244831 0.523766
0 0.446418 0.472251
0 0.45948 0.485359
0.0112001 0.471122 0.497063
0.201663 0.469566 0.495567
0.437339 0.454994 0.481056
0.676692 0.440192 0.466331
0.888289 0.433448 0.459632
1 0.439734 0.46598
1 0.450935 0.477241
0 0.652094 0.422644
0 0.66511 0.435721
0 0.676814 0.447471
0.150072 0.675822 0.446555
0.386526 0.66215 0.432944
0.625452 0.646906 0.417777
0.835325 0.637903 0.408835
0.994751 0.640299 0.411292
1 0.646021 0.417075
0 0.846693 0.402792
0 0.860258 0.416434
0 0.870924 0.427207
0.124636 0.867323 0.423697
0.356558 0.849226 0.405692
0.589471 0.827939 0.384497
0.792737 0.811749 0.368399
0.944976 0.806531 0.363256
1 0.804822 0.361654
0 1 0.421759
0 1 0.43032
0 1 0.434669
0.122393 1 0.424018
0.346685 0.995148 0.39852
0.572335 0.966583 0.370047
0.769177 0.943435 0.347021
0.91574 0.932052 0.33576
1 0.925353 0.329152
0 1 0.434089
0 1 0.435187
0 1 0.432425
0.111162 1 0.415366
0.329671 1 0.384192
0.550759 1 0.351171
0.744686 1 0.324697
0.889357 1 0.311116
1 1 0.30338
0 0 0.890837
0.0135805 0 0.883833
0.135164 0 0.874052
0.307393 0 0.851514
0.523751 0 0.817212
0.74316 0 0.782635
0.933684 0 0.756954
1 0 0.745617
1 0 0.741299
0 0 0.867292
0 0 0.8607
0.111711 0 0.852445
0.285222 0 0.831907
0.504829 0 0.800961
0.729305 0 0.77142
0.927031 0 0.752407
1 0 0.749157
1 0 0.75407
0 0.10367 0.840284
0 0.100908 0.837613
0.0925765 0.0983444 0.835142
0.272847 0.0852064 0.822095
0.500969 0.0628214 0.799786
0.734936 0.0426337 0.779706
0.942535 0.0328527 0.770016
1 0.0379187 0.775158
1 0.0492561 0.786603
0 0.248234 0.786969
0 0.254505 0.793301
0.0560311 0.261585 0.800427
0.244907 0.257816 0.796719
0.480781 0.24332 0.782284
0.720333 0.228733 0.767758
0.931197 0.221714 0.760784
1 0.22707 0.766201
1 0.238361 0.777554
0 0.439597 0.725734
0 0.452979 0.739162
0.00468452 0.464683 0.750912
0.194827 0.462898 0.749172
0.430564 0.448417 0.734752
0.67013 0.433814 0.720211
0.881819 0.4271 0.713542
1 0.433234 0.719738
1 0.444144 0.730694
0 0.645289 0.676097
0 0.658579 0.689448
0 0.670451 0.701366
0.143542 0.669474 0.700435
0.379782 0.655604 0.686625
0.618341 0.639994 0.671077
0.827741 0.630442 0.66157
0.986496 0.632105 0.663294
1 0.637003 0.668254
0 0.840269 0.656565
0 0.853559 0.669947
0 0.863813 0.680278
0.116732 0.859632 0.676173
0.34786 0.840757 0.657389
0.57998 0.818677 0.635386
0.782544 0.801709 0.618494
0.934112 0.795743 0.612604
1 0.793347 0.610285
0 1 0.673915
0 1 0.681666
0 1 0.685222
0.111849 1 0.673838
0.335424 0.984131 0.647608
0.560388 0.954879 0.618448
0.756771 0.931197 0.594873
0.902983 0.919417 0.583185
1 0.912413 0.576272
0 1 0.683589
0 1 0.68397
0 1 0.680568
0.0985428 1 0.66305
0.316686 1 0.631525
0.53753 1 0.598245
0.73138 1 0.571618
0.876097 1 0.557992
0.99939 1 0.550362
0 0 1
0.00300603 0 1
0.125231 0 1
0.297383 0 1
0.513832 0 1
0.733501 0 0.98436
0.924514 0 0.95903
1 0 0.948241
1 0 0.944686
0 0 1
0 0 1
0.102281 0 1
0.276204 0 1
0.496452 0 1
0.721828 0 0.975174
0.920546 0 0.957031
1 0 0.954742
1 0 0.960647
0 0.0950637 1
0 0.09308 1
0.0855421 0.0914321 1
0.266697 0.0792859 1
0.495842 0.0579232 1
0.7308 0.0387427 0.986648
0.939178 0.0296635 0.977615
1 0.0351568 0.983154
1 0.0466621 0.99472
0 0.242649 0.99234
0 0.249973 0.99968
0.0523384 0.257954 1
0.241733 0.254826 1
0.477928 0.240681 0.990417
0.71754 0.226139 0.975891
0.928237 0.218875 0.968643
1 0.224277 0.97406
1 0.235798 0.98558
0 0.436744 0.933684
0 0.450355 0.947295
0.0019379 0.461997 0.958953
0.191684 0.459937 0.956909
0.42771 0.445747 0.942718
0.667445 0.431327 0.928298
0.879164 0.424552 0.921538
1 0.430503 0.927504
1 0.441047 0.938064
0 0.642405 0.883879
0 0.65597 0.897444
0 0.667933 0.909422
0.14078 0.666896 0.9084
0.376761 0.652796 0.894301
0.614893 0.636744 0.878264
0.823774 0.626596 0.868116
0.981796 0.627451 0.869001
1 0.631571 0.873137
0 0.837598 0.864378
0 0.850584 0.877394
0 0.860349 0.887205
0.112413 0.855528 0.882414
0.342733 0.835859 0.862776
0.574075 0.813001 0.839963
0.775937 0.79527 0.822263
0.926848 0.788556 0.815595
1 0.785489 0.812558
0 1 0.879789
0 1 0.886702
0 1 0.889448
0.104921 1 0.877302
0.327764 0.97673 0.850324
0.552102 0.946853 0.820493
0.748089 0.922683 0.796399
0.89398 0.910521 0.784283
1 0.903273 0.777096
0 1 0.886748
0 1 0.886381
0 1 0.882399
0.089662 1 0.864424
0.307454 1 0.832547
0.528099 1 0.799023
0.721935 1 0.772229
0.866728 1 0.758587
0.990158 1 0.751049
0 0 1
0 0 1
0.119966 0 1
0.292042 0 1
0.508629 0 1
0.728634 0 1
0.92018 0 1
1 0 1
1 0 1
0 0 1
0 0 1
0.097673 0 1
0.272038 0 1
0.493019 0 1
0.71931 0 1
0.919081 0 1
1 0 1
1 0 1
0 0.091371 1
0 0.0902113 1
0.0834974 0.0895094 1
0.265553 0.0783703 1
0.495735 0.0580606 1
0.731594 0.039765 1
0.940658 0.0312963 1
1 0.0371252 1
1 0.0486915 1
0 0.242084 1
0 0.250431 1
0.0535134 0.25922 1
0.243351 0.256626 1
0.479789 0.242725 1
0.719341 0.228153 1
0.929793 0.220554 1
1 0.226215 1
1 0.237903 1
0 0.438636 1
0 0.452369 1
0.00375372 0.46389 1
0.193301 0.461723 1
0.429572 0.447791 1
0.669398 0.433463 1
0.881117 0.426627 1
1 0.432303 1
1 0.442435 1
0 0.644282 1
0 0.658045 1
0 0.670054 1
0.142611 0.668894 1
0.378256 0.65449 1
0.615915 0.637964 1
0.824186 0.627115 1
0.98146 0.627176 1
1 0.630518 1
0 0.839475 1
0 0.852079 1
0 0.861311 1
0.112459 0.855787 1
0.341955 0.835309 1
0.572519 0.811688 0.988861
0.773724 0.793194 0.970382
0.923964 0.785763 0.962966
1 0.782055 0.959258
0 1 1
0 1 1
0 1 1
0.102358 1 1
0.324483 0.973724 0.997436
0.548257 0.943267 0.967025
0.743877 0.918654 0.942443
0.889509 0.906157 0.929976
1 0.898711 0.922545
0 1 1
0 1 1
0 1 1
0.0852674 1 1
0.302785 1 0.978164
0.523262 1 0.944442
0.717098 1 0.917571
0.862013 1 0.903944
0.985626 1 0.896559
0 0 1
0 0 1
0.115862 0 1
0.287922 0 1
0.504707 0 1
0.725063 0 1
0.91722 0 1
1 0 1
1 0 1
0 0 1
0 0 1
0.094377 0 1
0.269261 0 1
0.491081 0 1
0.718303 0 1
0.919097 0 1
1 0 1
1 0 1
0 0.0890974 1
0 0.088838 1
0.0829633 0.0890822 1
0.265934 0.0789807 1
0.497124 0.0596933 1
0.733791 0.0422217 1
0.94345 0.0342565 1
1 0.0402991 1
1 0.0518349 1
0 0.243046 1
0 0.252369 1
0.0560769 0.261845 1
0.24625 0.259709 1
0.482795 0.245945 1
0.72221 0.23122 1
0.932586 0.223468 1
1 0.229374 1
1 0.241169 1
0 0.441764 1
0 0.455543 1
0.00660716 0.466804 1
0.19617 0.464775 1
0.432624 0.451057 1
0.67248 0.436759 1
0.884138 0.429755 1
1 0.435111 1
1 0.444755 1
0 0.647395 1
0 0.661295 1
0 0.673289 1
0.14548 0.671946 1
0.380758 0.65716 1
0.617853 0.640101 1
0.825467 0.628519 1
0.981979 0.627756 1
1 0.63032 1
0 0.84239 1
0 0.854551 1
0 0.863188 1
0.113359 0.856901 1
0.342046 0.83563 1
0.571847 0.811246 1
0.772366 0.792004 1
0.921965 0.783856 1
1 0.779568 1
0 1 1
0 1 1
0 1 1
0.100694 1 1
0.322133 0.971603 1
0.545388 0.940642 1
0.740673 0.915618 1
0.886076 0.902831 1
1 0.895201 1
0 1 1
0 1 1
0 1 1
0.0818952 1 1
0.299138 1 1
0.519493 1 1
0.71339 1 1
0.858457 1 1
0.982651 1 1
