agent_tooling/LUTs/CINELIKE D to REC 709_26.P1003055.cube
TITLE "Generated by Resolve"
LUT_3D_SIZE 33
0 0 0
0 0 0
0.00187686 0 0
0.0295567 0 0
0.0581674 0 0
0.0868849 0 0
0.11632 0 0
0.147295 0 0
0.180667 0 0
0.217502 0 0
0.25835 0 0
0.303487 0 0
0.352697 0 0
0.405219 0 0
0.4598 0 0
0.514748 0 0
0.568795 0 0
0.623438 0 0
0.678706 0 0
0.733745 0 0
0.787671 0 0
0.839612 0 0
0.888685 0 0
0.934325 0 0
0.976623 0 0
1 0 0
1 0 0
1 0 0
1 0 0
1 0 0
1 0 0
1 0 0
1 0 0
0 0 0
0 0 0
0 0 0
0.0231937 0 0
0.0517586 0 0
0.0803998 0 0
0.109758 0 0
0.140612 0 0
0.173816 0 0
0.210056 0 0
0.250919 0 0
0.296147 0 0
0.345739 0 0
0.39852 0 0
0.453117 0 0
0.508049 0 0
0.562081 0 0
0.616709 0 0
0.671992 0 0
0.727077 0 0
0.781064 0 0
0.833112 0 0
0.882307 0 0
0.928084 0 0
0.970565 0 0
1 0 0
1 0 0
1 0 0
1 0 0
1 0 0
1 0 0
1 0 0
1 0 0
0 0 0
0 0 0
0 0 0
0.0169375 0 0
0.0453956 0 0
0.0738537 0 0
0.102724 0 0
0.133654 0 0
0.16701 0 0
0.20383 0 0
0.244678 0 0
0.289845 0 0
0.339391 0 0
0.392157 0 0
0.446723 0 0
0.501686 0 0
0.555764 0 0
0.610452 0 0
0.665827 0 0
0.721004 0 0
0.775143 0 0
0.827359 0 0
0.876768 0 0
0.922789 0 0
0.96553 0 0
1 0 0
1 0 0
1 0 0
1 0 0
1 0 0
1 0 0
1 0 0
1 0 0
0 0.018204 0
0 0.0162203 0
0 0.0138399 0
0.0107576 0.0122835 0
0.0393378 0.0105287 0
0.0679942 0.00875868 0
0.0973983 0.00679026 0
0.128313 0.0043946 0
0.161624 0.00135805 0
0.198383 0 0
0.2392 0 0
0.284352 0 0
0.333883 0 0
0.386679 0 0
0.441306 0 0
0.496361 0 0
0.550561 0 0
0.605371 0 0
0.660914 0 0
0.716289 0 0
0.770657 0 0
0.823117 0 0
0.872816 0 0
0.919158 0 0
0.962234 0 0
1 0 0
1 0 0
1 0 0
1 0 0
1 0 0
1 0 0
1 0 0
1 0 0
0 0.0420386 0
0 0.0401923 0
0 0.0384527 0
0.00459297 0.0369573 0
0.0331579 0.0351873 0
0.061799 0.033402 0
0.0911727 0.0314183 0
0.122072 0.0290379 0
0.155383 0.0260166 0
0.192157 0.0220951 0
0.23299 0.0171054 0
0.278172 0.0109865 0
0.327779 0.00373846 0
0.380667 0 0
0.435431 0 0
0.490669 0 0
0.545068 0 0
0.600092 0 0
0.655879 0 0
0.711528 0 0
0.766201 0 0
0.819013 0 0
0.869093 0 0
0.915846 0 0
0.95935 0 0
0.999817 0 0
1 0 0
1 0 0
1 0 0
1 0 0
1 0 0
1 0 0
1 0 0
0 0.0667582 0
0 0.0648966 0
0 0.0631418 0
0 0.0616312 0
0.0268559 0.0598764 0
0.0555276 0.0581216 0
0.0849317 0.0561837 0
0.115877 0.0538643 0
0.149248 0.0509346 0
0.186084 0.0471351 0
0.227024 0.0422827 0
0.272328 0.0363317 0
0.322072 0.0292668 0
0.375143 0.0213931 0
0.430137 0.0131075 0
0.485634 0.00479133 0
0.540322 0 0
0.595651 0 0
0.651759 0 0
0.707774 0 0
0.76286 0 0
0.816114 0 0
0.866682 0 0
0.913954 0 0
0.958038 0 0
0.999069 0 0
1 0 0
1 0 0
1 0 0
1 0 0
1 0 0
1 0 0
1 0 0
0 0.091722 0
0 0.0898756 0
0 0.0881514 0
0 0.0867018 0
0.0200046 0.085008 0
0.0487678 0.0833448 0
0.0782788 0.081529 0
0.109361 0.0793622 0
0.142855 0.0766155 0
0.179858 0.0729992 0
0.220966 0.0683909 0
0.266484 0.0626841 0
0.316457 0.0558938 0
0.369802 0.0483101 0
0.425101 0.0403449 0
0.480934 0.0323644 0
0.536004 0.0247501 0
0.591714 0.0171359 0
0.648264 0.00946059 0
0.704768 0.00201419 0
0.760372 0 0
0.814206 0 0
0.865339 0 0
0.913207 0 0
0.95787 0 0
0.999512 0 0
1 0 0
1 0 0
1 0 0
1 0 0
1 0 0
1 0 0
1 0 0
0 0.117403 0
0 0.115633 0
0 0.114015 0
0 0.112688 0
0.0121157 0.111162 0
0.0410468 0.109667 0
0.0707408 0.108049 0
0.102022 0.106111 0
0.13576 0.103624 0
0.172992 0.100298 0
0.214374 0.0959793 0
0.260166 0.0906233 0
0.31046 0.0841993 0
0.364172 0.0770123 0
0.419867 0.0694591 0
0.476158 0.0619364 0
0.531731 0.0548104 0
0.587961 0.047715 0
0.645045 0.0406043 0
0.702113 0.0337072 0
0.758297 0.0272526 0
0.812696 0.0215 0
0.864454 0.0166934 0
0.912932 0.0129702 0
0.958221 0.0103456 0
1 0.00875868 0
1 0.00817884 0
1 0.00843824 0
1 0.00935378 0
1 0.0107881 0
1 0.0125734 0
1 0.0145418 0
1 0.016495 0
0 0.144366 0
0 0.142763 0
0 0.141329 0
0 0.140215 0
0.00263981 0.138918 0
0.0318151 0.137682 0
0.061799 0.136355 0
0.09337 0.134737 0
0.127413 0.132586 0
0.164996 0.129641 0
0.206714 0.125734 0
0.252903 0.120806 0
0.303639 0.114855 0
0.357824 0.108186 0
0.414054 0.101167 0
0.470893 0.0941939 0
0.527016 0.0876326 0
0.583795 0.0811017 0
0.641459 0.0745556 0
0.699107 0.0682383 0
0.755886 0.0623789 0
0.81091 0.0572213 0
0.86331 0.0530098 0
0.912428 0.049897 0
0.958373 0.0478981 0
1 0.0469368 0
1 0.0469825 0
1 0.0478676 0
1 0.0493782 0
1 0.0513771 0
1 0.053666 0
1 0.0560922 0
1 0.0584878 0
0 0.173297 0
0 0.171939 0
0 0.170764 0
0 0.16994 0
0 0.168963 0
0.0204166 0.168093 0
0.0507668 0.167147 0
0.0827192 0.165927 0
0.117189 0.164233 0
0.155215 0.161776 0
0.197421 0.158404 0
0.244099 0.154025 0
0.295354 0.148638 0
0.350072 0.142535 0
0.406867 0.136095 0
0.464271 0.129686 0
0.520989 0.123705 0
0.578363 0.117784 0
0.636622 0.111833 0
0.694881 0.106126 0
0.7523 0.100893 0
0.807965 0.0963607 0
0.861021 0.0927749 0
0.910811 0.0902876 0
0.957397 0.0888991 0
1 0.0885176 0
1 0.0890974 0
1 0.0904707 0
1 0.0924392 0
1 0.0948348 0
1 0.0975052 0
1 0.100267 0
1 0.102953 0
0 0.204654 0
0 0.203632 0
0 0.202823 0
0 0.20238 0
0 0.201831 0
0.00669871 0.201404 0
0.0375219 0.200961 0
0.0700084 0.20029 0
0.104982 0.199145 0
0.143526 0.197253 0
0.186267 0.194446 0
0.233478 0.190661 0
0.285267 0.185855 0
0.340551 0.180346 0
0.397925 0.174502 0
0.45594 0.168704 0
0.513283 0.163348 0
0.571267 0.158038 0
0.630137 0.152728 0
0.689052 0.147662 0
0.747112 0.143053 0
0.803403 0.139116 0
0.857053 0.136095 0
0.907393 0.134127 0
0.954482 0.133211 0
0.998489 0.133257 0
1 0.134234 0
1 0.135958 0
1 0.138231 0
1 0.140902 0
1 0.143801 0
1 0.146746 0
1 0.149569 0
0 0.23888 0
0 0.238285 0
0 0.237949 0
0 0.238025 0
0 0.23801 0
0 0.238132 0
0.0221408 0.238254 0
0.0551614 0.238148 0
0.0906844 0.237583 0
0.129778 0.236286 0
0.173068 0.234089 0
0.220844 0.2309 0
0.273213 0.226719 0
0.329076 0.221836 0
0.387076 0.216617 0
0.445731 0.211475 0
0.5037 0.206729 0
0.562295 0.20206 0
0.621775 0.197345 0
0.681239 0.192828 0
0.739803 0.188724 0
0.796597 0.185245 0
0.85069 0.182635 0
0.901442 0.181048 0
0.948898 0.180453 0
0.993225 0.180804 0
1 0.182025 0
1 0.183948 0
1 0.186404 0
1 0.189197 0
1 0.192172 0
1 0.195163 0
1 0.197986 0
0 0.276326 0
0 0.276265 0
0 0.276478 0
0 0.277119 0
0 0.277668 0
0 0.278386 0
0.00476081 0.279088 0
0.0383459 0.279576 0
0.074464 0.279622 0
0.114122 0.27895 0
0.158007 0.277378 0
0.206363 0.274846 0
0.259327 0.271305 0
0.315816 0.267063 0
0.374411 0.26247 0
0.433646 0.257893 0
0.492164 0.253697 0
0.551247 0.249516 0
0.611154 0.245258 0
0.671031 0.241138 0
0.729976 0.237385 0
0.787106 0.234226 0
0.841505 0.231907 0
0.892531 0.230549 0
0.940215 0.230137 0
0.984726 0.230625 0
1 0.231952 0
1 0.233936 0
1 0.236408 0
1 0.239185 0
1 0.2421 0
1 0.244984 0
1 0.247654 0
0 0.316777 0
0 0.317296 0
0 0.318074 0
0 0.31931 0
0 0.32047 0
0 0.321782 0
0 0.32311 0
0.0208286 0.324224 0
0.0575265 0.32491 0
0.0978103 0.32488 0
0.142275 0.323949 0
0.191211 0.322026 0
0.244694 0.319066 0
0.301671 0.315343 0
0.360723 0.311223 0
0.420401 0.307088 0
0.479316 0.303273 0
0.53872 0.299443 0
0.598947 0.295491 0
0.659098 0.291646 0
0.718273 0.288121 0
0.775601 0.28513 0
0.830167 0.282933 0
0.881315 0.281666 0
0.929076 0.2813 0
0.973617 0.281788 0
1 0.28307 0
1 0.284977 0
1 0.287327 0
1 0.289937 0
1 0.292638 0
1 0.295384 0
1 0.298054 0
0 0.359792 0
0 0.360922 0
0 0.36231 0
0 0.364172 0
0 0.365942 0
0 0.367895 0
0 0.369863 0
0.00392157 0.371618 0
0.0412146 0.3729 0
0.0819867 0.373419 0
0.126909 0.372992 0
0.176272 0.371542 0
0.230137 0.369009 0
0.28748 0.365667 0
0.346853 0.361883 0
0.406821 0.358038 0
0.46598 0.354467 0
0.525597 0.350851 0
0.585977 0.347066 0
0.64625 0.343343 0
0.705516 0.339879 0
0.76289 0.336934 0
0.817487 0.334707 0
0.868605 0.333379 0
0.916304 0.332921 0
0.960723 0.333257 0
1 0.334356 0
1 0.336065 0
1 0.338308 0
1 0.340948 0
1 0.343816 0
1 0.346761 0
1 0.349584 0
0 0.404959 0
0 0.406714 0
0 0.408743 0
0 0.411231 0
0 0.413626 0
0 0.416144 0
0 0.418647 0
0 0.420874 0
0.0263676 0.422614 0
0.0675212 0.423545 0
0.112764 0.423499 0
0.162402 0.42237 0
0.21651 0.420127 0
0.274067 0.417029 0
0.333623 0.413428 0
0.393729 0.40972 0
0.453025 0.406271 0
0.512673 0.402701 0
0.573068 0.398947 0
0.63331 0.395178 0
0.692531 0.391653 0
0.749828 0.388586 0
0.804273 0.386206 0
0.855238 0.384665 0
0.902785 0.384024 0
0.947204 0.384329 0
0.988617 0.385504 0
1 0.387381 0
1 0.389807 0
1 0.392599 0
1 0.39559 0
1 0.398627 0
1 0.401541 0
0 0.451926 0
0 0.454276 0
0 0.45687 0
0 0.459861 0
0 0.462715 0
0 0.465675 0
0 0.468559 0
0 0.471138 0
0.01355 0.473182 0
0.0549172 0.474388 0
0.100359 0.474556 0
0.150118 0.473625 0
0.204334 0.471519 0
0.261936 0.468498 0
0.321523 0.464973 0
0.381659 0.461265 0
0.440894 0.457755 0
0.500465 0.454108 0
0.560723 0.450217 0
0.620813 0.446281 0
0.679835 0.442557 0
0.737026 0.439368 0
0.791516 0.436973 0
0.842618 0.435569 0
0.89041 0.435111 0
0.935012 0.435569 0
0.976593 0.436881 0
1 0.43888 0
1 0.441382 0
1 0.444236 0
1 0.447272 0
1 0.450309 0
1 0.453208 0
0 0.50103 0
0 0.503838 0
0 0.506828 0
0 0.510201 0
0 0.51339 0
0 0.51664 0
0 0.519768 0
0 0.522545 0
0.000701915 0.524758 0
0.0421607 0.526085 0
0.0876326 0.526345 0
0.137392 0.525444 0
0.191546 0.523323 0
0.249073 0.520272 0
0.308537 0.516625 0
0.368521 0.512779 0
0.427588 0.509087 0
0.486961 0.505257 0
0.547143 0.501289 0
0.607279 0.497414 0
0.666499 0.493843 0
0.723888 0.490837 0
0.778561 0.488594 0
0.829831 0.487312 0
0.87776 0.486961 0
0.922469 0.48748 0
0.964126 0.488838 0
1 0.490852 0
1 0.493355 0
1 0.496193 0
1 0.499168 0
1 0.502129 0
1 0.504921 0
0 0.55169 0
0 0.554803 0
0 0.558083 0
0 0.561685 0
0 0.565042 0
0 0.568429 0
0 0.571664 0
0 0.574517 0
0 0.57673 0
0.0289921 0.578042 0
0.074342 0.578225 0
0.123949 0.577218 0
0.177905 0.57496 0
0.235218 0.57171 0
0.29453 0.56791 0
0.354482 0.564034 0
0.413672 0.560449 0
0.473213 0.556817 0
0.533562 0.553017 0
0.593866 0.549294 0
0.653208 0.545846 0
0.710719 0.542916 0
0.765484 0.540749 0
0.816831 0.539498 0
0.86479 0.539147 0
0.909514 0.539651 0
0.951171 0.540963 0
0.99028 0.542931 0
1 0.545342 0
1 0.548058 0
1 0.550881 0
1 0.553689 0
1 0.556298 0
0 0.603113 0
0 0.606394 0
0 0.609781 0
0 0.613458 0
0 0.616876 0
0 0.620264 0
0 0.623438 0
0 0.6262 0
0 0.62829 0
0.0157321 0.629435 0
0.060853 0.629435 0
0.110307 0.628336 0
0.164263 0.626108 0
0.221698 0.623011 0
0.281178 0.61941 0
0.341299 0.615702 0
0.400626 0.612238 0
0.460288 0.608728 0
0.520714 0.60502 0
0.581079 0.601343 0
0.640467 0.597925 0
0.697993 0.59501 0
0.752789 0.592798 0
0.804105 0.591501 0
0.852033 0.591073 0
0.896696 0.59147 0
0.938247 0.59266 0
0.977234 0.594461 0
1 0.596704 0
1 0.599207 0
1 0.601816 0
1 0.604364 0
1 0.606683 0
0 0.654459 0
0 0.657755 0
0 0.661128 0
0 0.664744 0
0 0.668055 0
0 0.671275 0
0 0.674281 0
0 0.67686 0
0 0.678904 0
0.00337224 0.680125 0
0.0486458 0.680323 0
0.0982528 0.679408 0
0.1523 0.677333 0
0.209842 0.674372 0
0.269429 0.670878 0
0.329625 0.667247 0
0.389013 0.663828 0
0.448676 0.660349 0
0.509117 0.656641 0
0.569436 0.652934 0
0.628794 0.649454 0
0.686259 0.646448 0
0.740963 0.644144 0
0.792203 0.64268 0
0.839994 0.6421 0
0.884489 0.642313 0
0.925856 0.643275 0
0.96463 0.644831 0
1 0.646799 0
1 0.649012 0
1 0.651301 0
1 0.653498 0
1 0.655451 0
0 0.704921 0
0 0.708095 0
0 0.711299 0
0 0.714717 0
0 0.717876 0
0 0.721096 0
0 0.724224 0
0 0.727001 0
0 0.729229 0
0 0.730587 0
0.03888 0.730907 0
0.0885481 0.730098 0
0.142641 0.728115 0
0.200198 0.725185 0
0.25977 0.721706 0
0.319966 0.718059 0
0.379324 0.714611 0
0.438911 0.711055 0
0.49926 0.707256 0
0.559472 0.703441 0
0.618692 0.699825 0
0.67602 0.696635 0
0.730556 0.694118 0
0.781598 0.692439 0
0.829175 0.6916 0
0.873426 0.691524 0
0.914519 0.69218 0
0.952972 0.693401 0
0.989471 0.695018 0
1 0.696849 0
1 0.698726 0
1 0.700496 0
1 0.701976 0
0 0.753689 0
0 0.756771 0
0 0.760021 0
0 0.763607 0
0 0.766949 0
0 0.770336 0
0 0.773587 0
0 0.776486 0
0 0.77879 0
0 0.780224 0
0.0321202 0.780575 0
0.0817426 0.779782 0
0.135775 0.777783 0
0.193271 0.774807 0
0.252766 0.771267 0
0.312856 0.767529 0
0.372091 0.763928 0
0.431525 0.760235 0
0.491691 0.756252 0
0.551705 0.752224 0
0.610697 0.748379 0
0.667796 0.74493 0
0.722072 0.742107 0
0.772839 0.740124 0
0.820096 0.738918 0
0.864012 0.738491 0
0.904753 0.738735 0
0.942809 0.739544 0
0.978866 0.740703 0
1 0.742046 0
1 0.74345 0
1 0.744717 0
1 0.745724 0
0 0.801358 0
0 0.804623 0
0 0.808011 0
0 0.811719 0
0 0.815167 0
0 0.818616 0
0 0.821927 0
0 0.824842 0
0 0.827146 0
0 0.828565 0
0.0284276 0.82887 0
0.0779278 0.828 0
0.131823 0.825879 0
0.189151 0.822797 0
0.248478 0.819089 0
0.308385 0.815152 0
0.367422 0.811353 0
0.426596 0.807401 0
0.486488 0.803159 0
0.546212 0.79884 0
0.604913 0.794659 0
0.661677 0.79086 0
0.715602 0.787655 0
0.766003 0.78526 0
0.812863 0.783627 0
0.856352 0.782712 0
0.89662 0.782483 0
0.934218 0.782803 0
0.969802 0.783459 0
1 0.784314 0
1 0.785229 0
1 0.786023 0
1 0.786542 0
0 0.84828 0
0 0.851621 0
0 0.855085 0
0 0.858824 0
0 0.862287 0
0 0.865721 0
0 0.868971 0
0 0.871839 0
0 0.874052 0
0 0.875349 0
0.0274052 0.875532 0
0.0766918 0.874495 0
0.130358 0.87219 0
0.187427 0.868879 0
0.246494 0.864927 0
0.306127 0.860716 0
0.364874 0.856611 0
0.423697 0.852338 0
0.483238 0.84773 0
0.542596 0.843015 0
0.600885 0.838422 0
0.657221 0.83418 0
0.710719 0.830503 0
0.760647 0.827604 0
0.80705 0.825483 0
0.85008 0.824079 0
0.889891 0.823346 0
0.927016 0.823163 0
0.962142 0.823346 0
0.995865 0.823728 0
1 0.82417 0
1 0.824506 0
1 0.824582 0
0 0.894209 0
0 0.897566 0
0 0.900984 0
0 0.904677 0
0 0.908064 0
0 0.911391 0
0 0.914519 0
0 0.917235 0
0 0.919264 0
0 0.920378 0
0.0285801 0.920317 0
0.0775769 0.919036 0
0.130922 0.916457 0
0.187655 0.91284 0
0.246372 0.908553 0
0.305623 0.90396 0
0.363989 0.899458 0
0.4224 0.894759 0
0.481468 0.889708 0
0.540368 0.88452 0
0.598184 0.879438 0
0.654047 0.874678 0
0.707073 0.870512 0
0.756558 0.867124 0
0.802518 0.8645 0
0.84509 0.862623 0
0.884459 0.861418 0
0.921141 0.860761 0
0.955825 0.860471 0
0.98909 0.86041 0
1 0.860395 0
1 0.860273 0
1 0.859907 0
0 0.938949 0
0 0.942214 0
0 0.945525 0
0 0.949081 0
0 0.952285 0
0 0.955428 0
0 0.958343 0
0 0.960815 0
0 0.962585 0
0 0.963394 0
0.0314794 0.963027 0
0.0800793 0.961395 0
0.132998 0.95845 0
0.189319 0.954437 0
0.247593 0.949706 0
0.306386 0.944671 0
0.364279 0.939681 0
0.422171 0.934493 0
0.480766 0.928954 0
0.539162 0.923262 0
0.596506 0.917693 0
0.651926 0.912459 0
0.704509 0.90782 0
0.753552 0.90396 0
0.799069 0.900862 0
0.841215 0.898497 0
0.880156 0.896834 0
0.916411 0.895735 0
0.950668 0.895003 0
0.983505 0.894484 0
1 0.894026 0
1 0.893492 0
1 0.892699 0
0 0.982452 0
0 0.98555 0
0 0.988647 0
0 0.991974 0
0 0.994934 0
0 0.997787 0
0 1 0
0 1 0
0 1 0
