agent_tooling/LUTs/CINELIKE D to REC 709_26.P1003055.cube
TITLE "Generated by Resolve"
LUT_3D_SIZE 5
0 0 0
0.180667 0 0
0.568795 0 0
0.976623 0 0
1 0 0
0 0.144366 0
0.127413 0.132586 0
0.527016 0.0876326 0
0.958373 0.0478981 0
1 0.0584878 0
0 0.451926 0
0.01355 0.473182 0
0.440894 0.457755 0
0.89041 0.435111 0
1 0.453208 0
0 0.84828 0
0 0.874052 0
0.364874 0.856611 0
0.80705 0.825483 0
1 0.824582 0
0 1 0
0 1 0
0.356619 1 0
0.773693 1 0
1 1 0
0 0 0.199191
0.172976 0 0.183139
0.56109 0 0.125353
0.969467 0 0.0636912
1 0 0.0446174
0 0.137972 0.145983
0.122957 0.128359 0.136446
0.525933 0.0870222 0.095201
0.961471 0.0513161 0.059556
1 0.0648203 0.0731365
0 0.456641 0.0136721
0.0202335 0.480018 0.0370489
0.447242 0.464485 0.0215152
0.897246 0.442176 0
1 0.460212 0.0172427
0 0.855467 0
0 0.88072 0
0.369192 0.861387 0
0.808408 0.827131 0
1 0.823178 0
0 1 0
0 1 0
0.351415 1 0
0.7673 1 0
1 1 0
0 0 0.644038
0.148867 0 0.627253
0.53753 0 0.570382
0.946822 0 0.50959
1 0 0.492714
0 0.116258 0.592554
0.103731 0.109377 0.58587
0.510277 0.07187 0.548562
0.94992 0.0400702 0.516976
1 0.0557107 0.532799
0 0.446418 0.472251
0.0112001 0.471122 0.497063
0.437339 0.454994 0.481056
0.888289 0.433448 0.459632
1 0.450935 0.477241
0 0.846693 0.402792
0 0.870924 0.427207
0.356558 0.849226 0.405692
0.792737 0.811749 0.368399
1 0.804822 0.361654
0 1 0.434089
0 1 0.432425
0.329671 1 0.384192
0.744686 1 0.324697
1 1 0.30338
0 0 1
0.125231 0 1
0.513832 0 1
0.924514 0 0.95903
1 0 0.944686
0 0.0950637 1
0.0855421 0.0914321 1
0.495842 0.0579232 1
0.939178 0.0296635 0.977615
1 0.0466621 0.99472
0 0.436744 0.933684
0.0019379 0.461997 0.958953
0.42771 0.445747 0.942718
0.879164 0.424552 0.921538
1 0.441047 0.938064
0 0.837598 0.864378
0 0.860349 0.887205
0.342733 0.835859 0.862776
0.775937 0.79527 0.822263
1 0.785489 0.812558
0 1 0.886748
0 1 0.882399
0.307454 1 0.832547
0.721935 1 0.772229
0.990158 1 0.751049
0 0 1
0.115862 0 1
0.504707 0 1
0.91722 0 1
1 0 1
0 0.0890974 1
0.0829633 0.0890822 1
0.497124 0.0596933 1
0.94345 0.0342565 1
1 0.0518349 1
0 0.441764 1
0.00660716 0.466804 1
0.432624 0.451057 1
0.884138 0.429755 1
1 0.444755 1
0 0.84239 1
0 0.863188 1
0.342046 0.83563 1
0.772366 0.792004 1
1 0.779568 1
0 1 1
0 1 1
0.299138 1 1
0.71339 1 1
0.982651 1 1
